svgs/light/file-lines.svg

<svg xmlns="http://www.w3.org/2000/svg" viewBox="0 0 384 512"><!-- Font Awesome Pro 6.0.0-alpha2 by @fontawesome - https://fontawesome.com License - https://fontawesome.com/license (Commercial License) --><path d="M365.256 125.254L258.746 18.746C246.744 6.742 230.465 0 213.49 0H64C28.654 0 0 28.654 0 64V448C0 483.346 28.654 512 64 512H320C355.348 512 384 483.346 384 448V170.51C384 153.535 377.258 137.258 365.256 125.254ZM224 34.076C228.477 35.643 232.666 37.922 236.119 41.375L342.627 147.879C346.08 151.332 348.357 155.523 349.924 160H240C231.188 160 224 152.828 224 144V34.076ZM352 448C352 465.645 337.645 480 320 480H64C46.355 480 32 465.645 32 448V64C32 46.355 46.355 32 64 32H192V144C192 170.469 213.531 192 240 192H352V448ZM96 272C96 280.836 103.164 288 112 288H272C280.838 288 288 280.836 288 272S280.838 256 272 256H112C103.164 256 96 263.164 96 272ZM272 320H112C103.164 320 96 327.164 96 336S103.164 352 112 352H272C280.838 352 288 344.836 288 336S280.838 320 272 320ZM272 384H112C103.164 384 96 391.164 96 400S103.164 416 112 416H272C280.838 416 288 408.836 288 400S280.838 384 272 384Z"/></svg>

<svg xmlns="http://www.w3.org/2000/svg" viewBox="0 0 384 512"><!--! Font Awesome Pro 6.3.0 by @fontawesome - https://fontawesome.com License - https://fontawesome.com/license (Commercial License) Copyright 2023 Fonticons, Inc. --><path d="M365.3 125.3l-106.5-106.5C246.7 6.742 230.5 0 213.5 0L64-.0001c-35.35 0-64 28.65-64 64l.0065 384c0 35.35 28.65 64 64 64H320c35.35 0 64-28.65 64-64v-277.5C384 153.5 377.3 137.3 365.3 125.3zM224 34.08c4.477 1.566 8.666 3.846 12.12 7.299l106.5 106.5C346.1 151.3 348.4 155.5 349.9 160H240C231.2 160 224 152.8 224 144V34.08zM352 448c0 17.64-14.36 32-32 32H64c-17.64 0-32-14.36-32-32V64c0-17.64 14.36-32 32-32h128v112C192 170.5 213.5 192 240 192H352V448zM96 272C96 280.8 103.2 288 112 288h160C280.8 288 288 280.8 288 272S280.8 256 272 256h-160C103.2 256 96 263.2 96 272zM272 320h-160C103.2 320 96 327.2 96 336S103.2 352 112 352h160c8.838 0 16-7.164 16-16S280.8 320 272 320zM272 384h-160C103.2 384 96 391.2 96 400S103.2 416 112 416h160c8.838 0 16-7.164 16-16S280.8 384 272 384z"/></svg>
